X: 50
T:Campbell's Farewell to Redcastle
M:2/4
L:1/16
Q:1/4=112
K:AMix
   e2 |A3B  c3d |e2a2 e3d|c2A2 A2Bc|d2B2 G2
   B2 |A3B  c3d |e2a2 e3d|c2BA G2B2|A4   A2:|
   g>f|e2a2 a2gf|e2a2 e3d|c2A2 A2Bc|d2B2 G2
[1 gf |e2a2 a2gf|e2a2 e3d|c2BA G2B2|A4   A2:|
[2 B2 |ABcd cdef|efga e3d|c2BA G2B2|A4   A2|]

This tune completely avoids that cadence.  The mixolydian seventh
occurs only near the top of the range, with the melody descending
after it (in many modal systems it would be considered to be in a
different mode sharing the same pitch set and tonal centre):

